www/assets/icons/cell_tower.svg

<svg width="24" height="24" viewBox="0 0 24 24" xmlns="http://www.w3.org/2000/svg" fill='currentColor'><path d="M7.3 14.25L8.5 13.05C7.5 12.05 7 10.75 7 9.54995C7 8.24995 7.5 6.94995 8.5 6.04995L7.3 4.84995C6 6.14995 5.3 7.84995 5.3 9.54995C5.3 11.25 6 12.95 7.3 14.25Z"/><path d="M19.1 2.44995L17.9 3.64995C19.5 5.24995 20.3 7.44995 20.3 9.54995C20.3 11.65 19.5 13.85 17.9 15.45L19.1 16.65C21.1 14.65 22 12.15 22 9.54995C22 6.94995 21 4.44995 19.1 2.44995Z"/><path d="M6.1 3.64995L4.9 2.44995C3 4.44995 2 6.94995 2 9.54995C2 12.15 3 14.65 4.9 16.65L6.1 15.45C4.5 13.85 3.7 11.65 3.7 9.54995C3.7 7.44995 4.5 5.24995 6.1 3.64995Z"/><path d="M16.7 14.25C18 12.95 18.7 11.25 18.7 9.54995C18.6 7.84995 18 6.14995 16.7 4.84995L15.5 6.04995C16.5 7.04995 17 8.34995 17 9.54995C17 10.85 16.5 12.15 15.5 13.05L16.7 14.25Z"/><path d="M14.5 9.54995C14.5 8.16995 13.38 7.04995 12 7.04995C10.62 7.04995 9.5 8.16995 9.5 9.54995C9.5 10.31 9.84 10.97 10.37 11.43L7 21.55H9L9.67 19.55H14.34L15 21.55H17L13.63 11.43C14.16 10.97 14.5 10.31 14.5 9.54995ZM10.33 17.55L12 12.55L13.67 17.55H10.33Z"/></svg>

<svg xmlns="http://www.w3.org/2000/svg" width="24" height="24" viewBox="0 0 24 24" fill='currentColor'><path d="m7.3 14.25 1.2-1.2c-1-1-1.5-2.3-1.5-3.5 0-1.3.5-2.6 1.5-3.5l-1.2-1.2c-1.3 1.3-2 3-2 4.7s.7 3.4 2 4.7m11.8-11.8-1.2 1.2c1.6 1.6 2.4 3.8 2.4 5.9s-.8 4.3-2.4 5.9l1.2 1.2c2-2 2.9-4.5 2.9-7.1s-1-5.1-2.9-7.1"/><path d="m6.1 3.65-1.2-1.2C3 4.45 2 6.95 2 9.55s1 5.1 2.9 7.1l1.2-1.2c-1.6-1.6-2.4-3.8-2.4-5.9s.8-4.3 2.4-5.9m10.6 10.6c1.3-1.3 2-3 2-4.7-.1-1.7-.7-3.4-2-4.7l-1.2 1.2c1 1 1.5 2.3 1.5 3.5 0 1.3-.5 2.6-1.5 3.5zm-2.2-4.7a2.5 2.5 0 0 0-5 0c0 .76.34 1.42.87 1.88L7 21.55h2l.67-2h4.67l.66 2h2l-3.37-10.12c.53-.46.87-1.12.87-1.88m-4.17 8 1.67-5 1.67 5z"/></svg>
